X: 6
T: The Maid At The Well
R: jig
M: 6/8
L: 1/8
K: Gmaj
|: G2 D EDE | GAB c2 d | edc B2 A | BGE EDE |G2 D EDE | GAB c2 d | edc B2 A | BGF G3 :||: g2 d ede | gdB c2 d | edc B2 A | BGE EDE |[1 g2 d ede | gdB c2 d | edc B2 A | BGF G3 :|[2 G2 D EDE | GAB c2 d | edc B2 A | BGF G3 ||


Tune 752	Setting 26364

